svg/u1f641.svg

<svg viewBox="0 0 128 128" xmlns="http://www.w3.org/2000/svg">
  <g id="gold">
    <radialGradient id="face_1_" cx="63.6" cy="1400.9" gradientTransform="matrix(1 0 0 1 0 -1338)" gradientUnits="userSpaceOnUse" r="56.9597">
      <stop offset="0.5" stop-color="#FDE030"/>
      <stop offset="0.92" stop-color="#F7C02B"/>
      <stop offset="1" stop-color="#F4A223"/>
    </radialGradient>
    <path id="face" d="M63.6,118.8c-27.9,0-58-17.5-58-55.9S35.7,7,63.6,7c15.5,0,29.8,5.1,40.4,14.4 c11.5,10.2,17.6,24.6,17.6,41.5s-6.1,31.2-17.6,41.4C93.4,113.6,79,118.8,63.6,118.8z" fill="url(#face_1_)"/>
    <path d="M111.49,29.67c5.33,8.6,8.11,18.84,8.11,30.23c0,16.9-6.1,31.2-17.6,41.4 c-10.6,9.3-25,14.5-40.4,14.5c-18.06,0-37-7.35-48.18-22.94c10.76,17.66,31,25.94,50.18,25.94c15.4,0,29.8-5.2,40.4-14.5 c11.5-10.2,17.6-24.5,17.6-41.4C121.6,50.16,118.13,38.84,111.49,29.67z" fill="#EB8F00"/>
  </g>
  <g id="facial_expressions">
    <path d="M44,40.94L44,40.94c-4.19,0-8,3.54-8,9.42s3.81,9.41,8,9.41l0,0c4.2,0,8-3.54,8-9.41 S48.24,40.94,44,40.94z" fill="#422B0D"/>
    <g id="peepers">
      <path d="M43.65,44.87L43.65,44.87c-1.42-0.68-3.13-0.08-3.82,1.34c-0.53,1.11-0.29,2.44,0.6,3.3l0,0 c1.42,0.68,3.13,0.08,3.82-1.34C44.78,47.06,44.54,45.73,43.65,44.87z" fill="#896024"/>
    </g>
    <path d="M82.4,40.94L82.4,40.94c-4.19,0-8,3.54-8,9.42s3.81,9.41,8,9.41l0,0c4.19,0,8-3.54,8-9.41 S86.59,40.94,82.4,40.94z" fill="#422B0D"/>
    <g id="peepers-2">
      <path d="M82,44.87L82,44.87c-1.42-0.68-3.13-0.08-3.82,1.34c-0.53,1.11-0.29,2.44,0.6,3.3l0,0 c1.42,0.68,3.13,0.08,3.82-1.34C83.13,47.06,82.89,45.73,82,44.87z" fill="#896024"/>
    </g>
    <path id="mouth" d="M64.18,78.19c9.07-0.08,17.75,3.74,23.82,10.48c0.46,0.53,0.57,1.28,0.28,1.92 c-0.29,0.65-0.93,1.07-1.64,1.08l0,0c-0.32,0-0.64-0.09-0.92-0.25c-4.82-2.77-12.88-6.21-21.52-6.21h-0.14 c-8.63,0-16.7,3.44-21.51,6.21c-0.28,0.16-0.6,0.25-0.92,0.25l0,0c-0.71-0.01-1.34-0.43-1.63-1.08c-0.3-0.64-0.19-1.39,0.28-1.92 c6.07-6.74,14.74-10.56,23.81-10.48" fill="#422B0D"/>
  </g>
</svg>

<svg viewBox="0 0 128 128" xmlns="http://www.w3.org/2000/svg">
  <defs>
    <radialGradient id="face_1_" cx="63.6" cy="62.9" gradientUnits="userSpaceOnUse" r="56.9597">
      <stop offset="0.5" stop-color="#FDE030"/>
      <stop offset="0.92" stop-color="#F7C02B"/>
      <stop offset="1" stop-color="#F4A223"/>
    </radialGradient>
  </defs>
  <path id="face" d="M63.6,118.8 C35.7,118.8 5.6,101.3 5.6,62.9 C5.6,24.5 35.7,7 63.6,7 C79.1,7 93.4,12.1 104,21.4 C115.5,31.6 121.6,46 121.6,62.9 C121.6,79.8 115.5,94.1 104,104.3 C93.4,113.6 79,118.8 63.6,118.8 Z" fill="url(#face_1_)"/>
  <path d="M111.49,29.67 C116.82,38.27 119.6,48.51 119.6,59.9 C119.6,76.8 113.5,91.1 102,101.3 C91.4,110.6 77,115.8 61.6,115.8 C43.54,115.8 24.6,108.45 13.42,92.86 C24.18,110.52 44.42,118.8 63.6,118.8 C79,118.8 93.4,113.6 104,104.3 C115.5,94.1 121.6,79.8 121.6,62.9 C121.6,50.16 118.13,38.84 111.49,29.67 Z" fill="#EB8F00"/>
  <path d="M44,40.94 L44,40.94 C39.81,40.94 36,44.48 36,50.36 C36,56.24 39.81,59.77 44,59.77 L44,59.77 C48.2,59.77 52,56.23 52,50.36 C52,44.49 48.24,40.94 44,40.94 Z" fill="#422B0D"/>
  <path d="M43.65,44.87 L43.65,44.87 C42.23,44.19 40.52,44.79 39.83,46.21 C39.3,47.32 39.54,48.65 40.43,49.51 L40.43,49.51 C41.85,50.19 43.56,49.59 44.25,48.17 C44.78,47.06 44.54,45.73 43.65,44.87 Z" fill="#896024"/>
  <path d="M82.4,40.94 L82.4,40.94 C78.21,40.94 74.4,44.48 74.4,50.36 C74.4,56.24 78.21,59.77 82.4,59.77 L82.4,59.77 C86.59,59.77 90.4,56.23 90.4,50.36 C90.4,44.49 86.59,40.94 82.4,40.94 Z" fill="#422B0D"/>
  <path d="M82,44.87 L82,44.87 C80.58,44.19 78.87,44.79 78.18,46.21 C77.65,47.32 77.89,48.65 78.78,49.51 L78.78,49.51 C80.2,50.19 81.91,49.59 82.6,48.17 C83.13,47.06 82.89,45.73 82,44.87 Z" fill="#896024"/>
  <path id="mouth" d="M64.18,78.19 C73.25,78.11 81.93,81.93 88,88.67 C88.46,89.2 88.57,89.95 88.28,90.59 C87.99,91.24 87.35,91.66 86.64,91.67 L86.64,91.67 C86.32,91.67 86,91.58 85.72,91.42 C80.9,88.65 72.84,85.21 64.2,85.21 L64.06,85.21 C55.43,85.21 47.36,88.65 42.55,91.42 C42.27,91.58 41.95,91.67 41.63,91.67 L41.63,91.67 C40.92,91.66 40.29,91.24 40,90.59 C39.7,89.95 39.81,89.2 40.28,88.67 C46.35,81.93 55.02,78.11 64.09,78.19" fill="#422B0D"/>
</svg>
